frontend/public/img/icons/safari-pinned-tab.svg

<svg fill="none" height="40" viewBox="0 0 40 40" width="40" xmlns="http://www.w3.org/2000/svg"><path d="m20 40c11.0457 0 20-8.9543 20-20s-8.9543-20-20-20-20 8.9543-20 20 8.9543 20 20 20z" fill="#d15c22"/><path clip-rule="evenodd" d="m29.9967 12.0534c0-.9132-.7001-1.6534-1.5636-1.6534s-1.5636.7402-1.5636 1.6534v16.1659c0 .9131.7001 1.6533 1.5636 1.6533s1.5636-.7402 1.5636-1.6533zm-9.9211 5.5818 2.3578-2.2855c.6107-.5918 1.6006-.5918 2.2113 0 .6106.5919.6106 1.5515 0 2.1433l-3.3428 3.2402c-.0354.0426-.0734.0838-.1142.1233-.6106.5918-1.6006.5918-2.2112 0l-8.1185-7.8693c-.6106-.5918-.6106-1.5514 0-2.1433.6106-.5918 1.6006-.5918 2.2112 0zm-8.112-1.1056c.8635 0 1.5635.7725 1.5635 1.7254v9.8922c0 .953-.7 1.7254-1.5635 1.7254s-1.5636-.7724-1.5636-1.7254v-9.8922c0-.9529.7001-1.7254 1.5636-1.7254z" fill="#fff" fill-rule="evenodd"/></svg>

<svg width="40" height="40" viewBox="0 0 40 40" fill="none" xmlns="http://www.w3.org/2000/svg">
<path d="M20 40C31.0457 40 40 31.0457 40 20C40 8.9543 31.0457 0 20 0C8.9543 0 0 8.9543 0 20C0 31.0457 8.9543 40 20 40Z" fill="#D15C22"/>
<path fill-rule="evenodd" clip-rule="evenodd" d="M29.9967 12.0534C29.9967 11.1402 29.2966 10.4 28.4331 10.4C27.5696 10.4 26.8695 11.1402 26.8695 12.0534V28.2193C26.8695 29.1324 27.5696 29.8726 28.4331 29.8726C29.2966 29.8726 29.9967 29.1324 29.9967 28.2193V12.0534ZM20.0756 17.6352L22.4334 15.3497C23.0441 14.7579 24.034 14.7579 24.6447 15.3497C25.2553 15.9416 25.2553 16.9012 24.6447 17.493L21.3019 20.7332C21.2665 20.7758 21.2285 20.817 21.1877 20.8565C20.5771 21.4483 19.5871 21.4483 18.9765 20.8565L10.858 12.9872C10.2474 12.3954 10.2474 11.4358 10.858 10.8439C11.4686 10.2521 12.4586 10.2521 13.0692 10.8439L20.0756 17.6352ZM11.9636 16.5296C12.8271 16.5296 13.5271 17.3021 13.5271 18.255V28.1472C13.5271 29.1002 12.8271 29.8726 11.9636 29.8726C11.1001 29.8726 10.4 29.1002 10.4 28.1472V18.255C10.4 17.3021 11.1001 16.5296 11.9636 16.5296Z" fill="white"/>
</svg>
